styles/1/Numix/32/places/grey-folder-projects.svg

<?xml version="1.0" encoding="UTF-8" standalone="no"?>
<!-- Created with Inkscape (http://www.inkscape.org/) -->

<svg
   xmlns:dc="http://purl.org/dc/elements/1.1/"
   xmlns:cc="http://creativecommons.org/ns#"
   xmlns:rdf="http://www.w3.org/1999/02/22-rdf-syntax-ns#"
   xmlns:svg="http://www.w3.org/2000/svg"
   xmlns="http://www.w3.org/2000/svg"
   xmlns:sodipodi="http://sodipodi.sourceforge.net/DTD/sodipodi-0.dtd"
   xmlns:inkscape="http://www.inkscape.org/namespaces/inkscape"
   width="32"
   height="32"
   id="svg2"
   version="1.1"
   inkscape:version="0.91 r"
   sodipodi:docname="grey-folder-projects.svg"
   inkscape:export-filename="/media/Data/Main/Visuals/Icons/Numix/Desktop/repos/numix-wiki/Gjorgi/Numix-folders/48/New/folder-144.png"
   inkscape:export-xdpi="270"
   inkscape:export-ydpi="270">
  <defs
     id="defs4" />
  <sodipodi:namedview
     id="base"
     pagecolor="#ffffff"
     bordercolor="#666666"
     borderopacity="1.0"
     inkscape:pageopacity="0.0"
     inkscape:pageshadow="2"
     inkscape:zoom="18.95"
     inkscape:cx="20.417033"
     inkscape:cy="15.501154"
     inkscape:document-units="px"
     inkscape:current-layer="layer1"
     showgrid="true"
     inkscape:window-width="1280"
     inkscape:window-height="998"
     inkscape:window-x="0"
     inkscape:window-y="0"
     inkscape:window-maximized="1"
     showguides="true"
     inkscape:guide-bbox="true">
    <inkscape:grid
       type="xygrid"
       id="grid2985"
       empspacing="5"
       visible="true"
       enabled="true"
       snapvisiblegridlinesonly="true" />
  </sodipodi:namedview>
  <metadata
     id="metadata7">
    <rdf:RDF>
      <cc:Work
         rdf:about="">
        <dc:format>image/svg+xml</dc:format>
        <dc:type
           rdf:resource="http://purl.org/dc/dcmitype/StillImage" />
        <dc:title />
      </cc:Work>
    </rdf:RDF>
  </metadata>
  <g
     inkscape:label="Layer 1"
     inkscape:groupmode="layer"
     id="layer1"
     transform="translate(0,-1020.3622)">
    <path
       style="font-size:medium;font-style:normal;font-variant:normal;font-weight:normal;font-stretch:normal;text-indent:0;text-align:start;text-decoration:none;line-height:normal;letter-spacing:normal;word-spacing:normal;text-transform:none;direction:ltr;block-progression:tb;writing-mode:lr-tb;text-anchor:start;baseline-shift:baseline;color:#000000;fill:#bdbdbd;fill-opacity:1;fill-rule:nonzero;stroke:none;stroke-width:2.28612947;marker:none;visibility:visible;display:inline;overflow:visible;enable-background:accumulate;font-family:Sans;-inkscape-font-specification:Sans"
       d="M 2.03125 4 C 1.4665378 4.056 0.99079304 4.58885 1 5.15625 L 1 26.84375 C 0.99302 27.45105 1.5489584 28.007 2.15625 28 L 29.84375 28 C 30.451042 28.01 31.006984 27.45105 31 26.84375 L 31 7.15625 C 31.007 6.54895 30.451042 5.993 29.84375 6 L 19 6 L 19 5.15625 C 19.0069 4.55935 18.471863 4.0095 17.875 4 L 2.15625 4 L 2.03125 4 z M 11.15625 11.46875 C 11.54168 11.46275 11.931798 11.49625 12.3125 11.53125 C 14.166315 11.74135 16.008667 12.4474 17.375 13.75 C 17.798097 13.67 18.227149 13.60025 18.65625 13.53125 C 19.288999 13.44785 19.933474 13.6971 20.34375 14.1875 C 20.851935 14.817 21.343886 15.45985 21.84375 16.09375 C 22.098523 16.42505 21.938003 16.94925 21.53125 17.03125 C 20.844004 17.15555 20.123246 17.2527 19.4375 17.375 C 19.478811 17.9372 19.368421 18.51685 19.03125 18.96875 C 18.652943 19.49855 18.015999 19.82725 17.375 19.90625 C 17.35599 20.39085 17.40385 20.8842 17.40625 21.375 C 17.40297 21.608 17.43692 21.834 17.375 22.0625 C 17.273235 22.4098 16.824221 22.6094 16.5 22.4375 C 15.795691 22.0742 15.105615 21.7434 14.40625 21.375 C 13.816984 21.0601 13.42188 20.418 13.40625 19.75 C 13.4055 19.3678 13.39855 18.97485 13.40625 18.59375 C 13.425788 18.50245 13.33451 18.4885 13.28125 18.4375 C 11.828245 17.3426 10.846159 15.68885 10.3125 13.96875 C 10.102706 13.21895 9.9159355 12.4074 10.03125 11.625 C 10.398017 11.4977 10.77082 11.48075 11.15625 11.46875 z M 13.46875 12.875 C 13.020891 12.916 12.591533 13.15845 12.28125 13.53125 C 11.660684 14.27735 11.754724 15.3791 12.5 16 C 13.245278 16.6212 14.348182 16.4958 14.96875 15.75 C 15.589315 15.0041 15.495276 13.90245 14.75 13.28125 C 14.377361 12.97085 13.916607 12.835 13.46875 12.875 z M 20.625 18.25 C 20.676117 18.255 20.73748 18.2775 20.78125 18.3125 C 21.155388 18.6211 21.53691 18.9392 21.90625 19.25 C 22.091966 19.3987 22.00918 19.705 21.78125 19.75 C 21.597103 19.779 21.403874 19.82175 21.21875 19.84375 C 21.402402 20.27065 21.602397 20.66465 21.78125 21.09375 C 21.868011 21.29705 21.650695 21.57525 21.4375 21.53125 C 20.985087 21.43105 20.550961 21.2855 20.09375 21.1875 C 20.11055 21.3715 20.1192 21.5634 20.125 21.75 C 20.121988 21.9779 19.898172 22.1527 19.71875 22 C 19.350014 21.6958 18.929738 21.33735 18.5625 21.03125 C 18.383539 20.88835 18.407125 20.60025 18.625 20.53125 C 19.461746 20.17695 20.11707 19.3889 20.3125 18.5 C 20.334651 18.3395 20.471659 18.236 20.625 18.25 z "
       transform="translate(0,1020.3622)"
       id="path3912" />
  </g>
</svg>

<!-- Created with Inkscape (http://www.inkscape.org/) -->
<svg xmlns="http://www.w3.org/2000/svg" viewBox="0 0 32 32">
 <g transform="translate(0,-1020.3622)">
  <path d="m 2.031 4 c -0.565 0.056 -1.04 0.589 -1.031 1.156 l 0 21.688 c -0.007 0.607 0.549 1.163 1.156 1.156 l 27.688 0 c 0.607 0.01 1.163 -0.549 1.156 -1.156 l 0 -19.688 c 0.007 -0.607 -0.549 -1.163 -1.156 -1.156 l -10.844 0 l 0 -0.844 c 0.007 -0.597 -0.528 -1.147 -1.125 -1.156 l -15.719 0 l -0.125 0 z m 9.125 7.469 c 0.385 -0.006 0.776 0.027 1.156 0.063 c 1.854 0.21 3.696 0.916 5.063 2.219 c 0.423 -0.08 0.852 -0.15 1.281 -0.219 c 0.633 -0.083 1.277 0.166 1.688 0.656 c 0.508 0.63 1 1.272 1.5 1.906 c 0.255 0.331 0.094 0.855 -0.313 0.938 c -0.687 0.124 -1.408 0.221 -2.094 0.344 c 0.041 0.562 -0.069 1.142 -0.406 1.594 c -0.378 0.53 -1.015 0.858 -1.656 0.938 c -0.019 0.485 0.029 0.978 0.031 1.469 c -0.003 0.233 0.031 0.459 -0.031 0.688 c -0.102 0.347 -0.551 0.547 -0.875 0.375 c -0.704 -0.363 -1.394 -0.694 -2.094 -1.063 c -0.589 -0.315 -0.984 -0.957 -1 -1.625 c -0.001 -0.382 -0.008 -0.775 0 -1.156 c 0.02 -0.091 -0.072 -0.105 -0.125 -0.156 c -1.453 -1.095 -2.435 -2.749 -2.969 -4.469 c -0.21 -0.75 -0.397 -1.561 -0.281 -2.344 c 0.367 -0.127 0.74 -0.144 1.125 -0.156 z m 2.313 1.406 c -0.448 0.041 -0.877 0.283 -1.188 0.656 c -0.621 0.746 -0.527 1.848 0.219 2.469 c 0.745 0.621 1.848 0.496 2.469 -0.25 c 0.621 -0.746 0.527 -1.848 -0.219 -2.469 c -0.373 -0.31 -0.833 -0.446 -1.281 -0.406 z m 7.156 5.375 c 0.051 0.005 0.112 0.027 0.156 0.063 c 0.374 0.309 0.756 0.627 1.125 0.938 c 0.186 0.149 0.103 0.455 -0.125 0.5 c -0.184 0.029 -0.377 0.072 -0.563 0.094 c 0.184 0.427 0.384 0.821 0.563 1.25 c 0.087 0.203 -0.131 0.482 -0.344 0.438 c -0.452 -0.1 -0.887 -0.246 -1.344 -0.344 c 0.017 0.184 0.025 0.376 0.031 0.563 c -0.003 0.228 -0.227 0.403 -0.406 0.25 c -0.369 -0.304 -0.789 -0.663 -1.156 -0.969 c -0.179 -0.143 -0.155 -0.431 0.063 -0.5 c 0.837 -0.354 1.492 -1.142 1.688 -2.031 c 0.022 -0.16 0.159 -0.264 0.313 -0.25 z" transform="translate(0,1020.3622)" style="visibility:visible;fill:#bdbdbd;fill-opacity:1;stroke:none;display:inline;color:#000;fill-rule:nonzero"/>
 </g>
</svg>
